packages/icons/raw/imported/OtherPlug.svg

<svg width="32" height="32" viewBox="0 0 32 32" fill="none" xmlns="http://www.w3.org/2000/svg">
<path d="M7.96154 12.3462V11.8462C7.6854 11.8462 7.46154 12.07 7.46154 12.3462H7.96154ZM24.0385 12.3462H24.5385C24.5385 12.07 24.3146 11.8462 24.0385 11.8462V12.3462ZM6.5 11.8462C6.22386 11.8462 6 12.07 6 12.3462C6 12.6223 6.22386 12.8462 6.5 12.8462V11.8462ZM25.5 12.8462C25.7761 12.8462 26 12.6223 26 12.3462C26 12.07 25.7761 11.8462 25.5 11.8462V12.8462ZM11.3846 6.5C11.3846 6.22386 11.1608 6 10.8846 6C10.6085 6 10.3846 6.22386 10.3846 6.5L11.3846 6.5ZM10.3846 12.3462C10.3846 12.6223 10.6085 12.8462 10.8846 12.8462C11.1608 12.8462 11.3846 12.6223 11.3846 12.3462H10.3846ZM21.6154 6.5C21.6154 6.22386 21.3915 6 21.1154 6C20.8392 6 20.6154 6.22386 20.6154 6.5L21.6154 6.5ZM20.6154 12.3462C20.6154 12.6223 20.8392 12.8462 21.1154 12.8462C21.3915 12.8462 21.6154 12.6223 21.6154 12.3462H20.6154ZM15.5 25.5C15.5 25.7761 15.7239 26 16 26C16.2761 26 16.5 25.7761 16.5 25.5H15.5ZM7.96154 12.8462H24.0385V11.8462H7.96154V12.8462ZM23.5385 12.3462V15.2692H24.5385V12.3462H23.5385ZM8.46154 15.2692V12.3462H7.46154V15.2692H8.46154ZM16 22.8077C11.8366 22.8077 8.46154 19.4326 8.46154 15.2692H7.46154C7.46154 19.9849 11.2843 23.8077 16 23.8077V22.8077ZM23.5385 15.2692C23.5385 19.4326 20.1634 22.8077 16 22.8077V23.8077C20.7157 23.8077 24.5385 19.9849 24.5385 15.2692H23.5385ZM6.5 12.8462H25.5V11.8462H6.5V12.8462ZM10.3846 6.5L10.3846 12.3462H11.3846L11.3846 6.5L10.3846 6.5ZM20.6154 6.5L20.6154 12.3462H21.6154L21.6154 6.5L20.6154 6.5ZM15.5 23.3077V25.5H16.5V23.3077H15.5Z" fill="black"/>
</svg>

<svg width="32" height="32" fill="none" xmlns="http://www.w3.org/2000/svg"><path d="M7.962 12.346v-.5a.5.5 0 0 0-.5.5h.5Zm16.076 0h.5a.5.5 0 0 0-.5-.5v.5Zm-17.538-.5a.5.5 0 1 0 0 1v-1Zm19 1a.5.5 0 0 0 0-1v1ZM11.385 6.5a.5.5 0 1 0-1 0h1Zm-1 5.846a.5.5 0 0 0 1 0h-1ZM21.615 6.5a.5.5 0 0 0-1 0h1Zm-1 5.846a.5.5 0 1 0 1 0h-1ZM15.5 25.5a.5.5 0 0 0 1 0h-1ZM7.962 12.846h16.076v-1H7.962v1Zm15.576-.5v2.923h1v-2.923h-1ZM8.462 15.27v-2.923h-1v2.923h1ZM16 22.808a7.538 7.538 0 0 1-7.538-7.539h-1A8.538 8.538 0 0 0 16 23.808v-1Zm7.538-7.539A7.538 7.538 0 0 1 16 22.808v1a8.538 8.538 0 0 0 8.538-8.539h-1ZM6.5 12.846h19v-1h-19v1ZM10.385 6.5v5.846h1V6.5h-1Zm10.23 0v5.846h1V6.5h-1ZM15.5 23.308V25.5h1v-2.192h-1Z" fill="#000"/></svg>
